NotoEmoji/1f1f1-1f1f7.svg

<svg xmlns="http://www.w3.org/2000/svg" viewBox="0 0 36 36"><path d="M35.692 28.538H.308C.911 29.983 2.336 31 4 31h28c1.664 0 3.089-1.017 3.692-2.462zM0 23.811h36v2.561H0zM11.5 9.629H36v2.561H11.5zm24.192-2.167C35.089 6.017 33.664 5 32 5H11.5v2.462h24.192zM11.5 14.356H36v2.561H11.5zM0 19.083h36v2.561H0z" fill="#BF0A30"/><path d="M11.5 12.189H36v2.167H11.5zM0 16.917v2.166h36v-2.166H12zm11.5-9.455v2.167H36V9c0-.545-.111-1.064-.308-1.538H11.5zM0 21.644h36v2.167H0zM0 27c0 .545.111 1.064.308 1.538h35.383c.198-.474.309-.993.309-1.538v-.629H0V27z" fill="#FFF"/><path fill="#002868" d="M4 5C1.791 5 0 6.791 0 9v7.917h12V5H4z"/><path fill="#FFF" d="M6.794 10.245L6 7.802l-.794 2.443H2.638l2.078 1.51-.794 2.443L6 12.688l2.078 1.51-.794-2.443 2.078-1.51z"/></svg>

<svg viewBox="0 0 36 36" xmlns="http://www.w3.org/2000/svg"><path d="m35.69 28.54h-35.38c.6 1.44 2.03 2.46 3.69 2.46h28c1.66 0 3.09-1.02 3.69-2.46zm-35.69-4.73h36v2.56h-36zm11.5-14.18h24.5v2.56h-24.5zm24.19-2.17c-.6-1.44-2.03-2.46-3.69-2.46h-20.5v2.46zm-24.19 6.9h24.5v2.56h-24.5zm-11.5 4.72h36v2.56h-36z" fill="#bf0a30"/><path d="m11.5 12.19h24.5v2.17h-24.5zm-11.5 4.73v2.17h36v-2.17h-24zm11.5-9.46v2.17h24.5v-.63c0-.55-.11-1.06-.31-1.54zm-11.5 14.18h36v2.17h-36zm0 5.36c0 .55.11 1.06.31 1.54h35.38c.2-.47.31-.99.31-1.54v-.63h-36z" fill="#fff"/><path d="m4 5c-2.21 0-4 1.79-4 4v7.92h12v-11.92z" fill="#002868"/><path d="m6.79 10.25-.79-2.45-.79 2.44h-2.57l2.08 1.51-.79 2.44 2.07-1.5 2.08 1.51-.79-2.44 2.08-1.51z" fill="#fff"/></svg>
